X:1
T:Caro Mea
T:Oliver Hayes
T:Caro Mea 
C:Oliver Hayes
%%score [ 1 2 3 4 ]
L:1/8
Q:1/4=160
M:4/2
K:Db
V:1 treble nm="Soprano"
V:2 treble nm="Alto"
V:3 treble-8 nm="Tenor"
V:4 bass nm="Bass"
V:1
 z16 | z16 | z16 | z16 | z16 | z16 | z16 | z16 | z16 | e8 e8 | B8 e8 | d6 c2 B4 d4 | c6 B2 A8 | %13
w: |||||||||Ca- ro|me- a|ve- re est _|ci- * bus,|
 c8 d8 | e6 f2 g8 | f4 e2 d2 c4 B4 | A4 G4 F8 | G8 A4 B4 | c4 d4 e8 | e6 e2 B8 | A8 z8 | e8 d6 c2 | %22
w: ca- ro|me- a ve-|* * * re est|ci- * bus,|et san- guis|me- us ve-|re est po-|tus,|et san- guis|
 B4 e4 d6 c2 | A8 E8 | E8 B8 | c8 e8 | e8 d4 c4 | A8 G8 | B8 d4 e4 | f8 e4 c4 | d2 e2 f4 g8 | %31
w: me- us ve- re|est po-|tus. Qui|man- du-|cat car- nem|me- um,|qui man- *|du- cat car-|* * nem me-|
 f8 e8 | z8 F8 | F2 G2 A2 B2 c4 d4 | e4 f4 d8 | c8 A4 B2 c2 | d12 e4 | f8 e8 | d4 f4 e8 | %39
w: * um,|qui|man- * * * du- cat|car- * nem|me- * * *|um, et|bi- bet|san- gui- *|
 d4 c4 c8 | f8 e8 | d4 e4 f8 | z8 d8 | c6 A2 A4 c4 | e4 E4 A8 | d4 e4 f8 | e8 d4 c4 | B12 c4 | %48
w: * * nem|me- *|um, _ _|et|bi- bet san- gui-|nem me- um,|in _ me|ma- * *|net, in|
 d4 e4 E4 F4 | G8 A8- | A8 z8 | F8 G8 | A8 B8 | c8 d8 | e4 f4 g4 G4 | A8 B4 c4 | d8 B4 c4 | %57
w: me _ ma- *|* net,|_|in me|ma- net,|in me|ma- * * *||net, et _|
 d6 e2 f8 | F4 G8 A4 | B4 c4 d8 | d16 | G8 z8 | A8 e8 | d8 c8 | B8 A8 | E12 F4 | G4 A4 B4 c2 d2 | %67
w: e- go in|il- lo, et|e- go in|il-|lo,|et e-|go in|il- lo.|Al- le-|lu- * * * *|
 e4 f4 g8- | g8 f8 | e6 f2 g4 f4 | e4 d4 c8 | B6 A2 G8 | z8 e8 | B4 e4 d6 c2 | B2 A2 G2 F2 E8 | %75
w: * * ia,|_ al-|le- * lu- *||* * ia,|al-|le- * lu- *|* * * * ia,|
 F8 f8- | f8 e8 | d16 | c16 |] %79
w: al- le-|* lu-|ia.|_|
V:2
 z16 | z16 | z16 | z16 | z16 | z16 | G8 G8 | D8 G8 | F6 E2 D4 F4 | E6 D2 C8 | E8 E4 F4 | G8 G6 F2 | %12
w: ||||||ca- ro|me- a|ve- re est _|ci- * bus,|ca- ro me-|a ve- *|
 E12 D4 | C8 B,8 | B4 c4 B6 B2 | A4 G2 F2 E4 D4 | C8 B,8- | B,8 z8 | A8 G6 F2 | E4 A4 G6 F2 | %20
w: re est|ci- bus,|ca- ro me- a|ve- * * re est|ci- bus,|_|et san- guis|me- us ve- re|
 D8 A,8 | A,8 A4 F4 | G8 A4 G4 | E8 C2 D2 E2 F2 | G8 E8- | E8 A8 | G12 E4 | D8 E4 F4 | G16 | %29
w: est po-|tus, ve- *|* * re|est po- * * *|tus. Qui|_ man-|du- cat|car- * nem|me-|
 A8 z8 | B,8 B,2 C2 D2 E2 | F4 G4 A4 B4 | G8 F8 | F8 A8 | A6 A2 A4 A4 | A8 E8 | G8 A8 | A8 A8 | %38
w: um,|qui man- * * *|du- cat car- nem|me- um,|qui man-|du- cat car- nem|me- um,|et bi-|bet san-|
 F8 A8 | A8 A8 | z8 G8 | F6 D2 D4 F4 | A4 A,4 D8 | F8 A8- | A4 G4 A4 G4 | F12 G4 | A8 F8 | %47
w: gui- nem|me- um,|et|bi- bet san- gui-|nem me- um,|et bi-|* bet san- *|gui- *|nem me-|
 G2 F2 E4 D8- | D8 z8 | B,8 C8 | D8 E8 | D4 E2 F2 E8- | E8 F4 G4 | A8 F8 | A8 D4 E4 | F8 G8 | %56
w: * * * um,|_|in me|ma- net,|in _ _ me|_ ma- *|* net,|et e- go|in il-|
 F8 G8 | A4 B4 c4 C4 | D8 z8 | D8 A8 | G8 F8 | E8 D8 | E12 D2 E2 | F12 E4 | D8 E4 D4 | E12 C4 | %66
w: lo, et|e- go in il-|lo,|et e-|go in|il- lo,|et e- *|go in|il- lo. _|Al- le-|
 D8 G4 A2 B2 | c8 B4 A4 | G8 A8 | G8 z8 | A8 E4 A4 | G6 F2 E2 D2 C2 B,2 | A,8 C4 E4 | G8 F8 | %74
w: * lu- * *|ia, al- le-|lu- *|ia,|al- le- *|lu- * * * * *|ia, al- le-|lu- ia,|
 G4 D4 E8 | D8 A8- | A16- | A16- | A16 |] %79
w: al- le- lu-|* ia.|_|||
V:3
 z16 | z16 | z16 | d8 d8 | A8 d8 | c6 B2 A4 c4 | B6 A2 G8 | B8 B6 c2 | d8 A8 | A8 A4 E4 | %10
w: |||Ca- ro|me- a|ve- re est _|ci- * bus,|ca- ro _|me- a|ve- re est|
 G4 A2 B2 c8 | B6 c2 d8 | c8 c8 | e4 f4 g8- | g4 e8 d4- | d8 z8 | e8 d6 c2 | B4 e4 d6 c2 | A8 E8 | %19
w: ci- * * bus,|ca- * ro|me- a|ve- re est|_ ci- bus,|_|et san- guis|me- us ve- re|est po-|
 E8 G8 | F2 G2 A2 B2 c4 d4 | e8 f8 | B8 A4 B4 | c4 B4 A6 d2 | B4 A4 G8 | A4 B4 c8 | B12 z4 | %27
w: tus, et|san- * * * * guis|me- us|ve- re est|po- * tus, ve-|re est po-||tus.|
 z8 E8 | E2 F2 G2 A2 B4 c4 | d4 e4 c8 | B8 e8 | A12 G4 | B8 B8 | d8 f2 e2 d4 | c8 f8 | e4 d4 c8 | %36
w: Qui|man- * * * du- cat|car- nem me-|um, qui|man- *|du- cat|car- * * nem|me- um,|car- * nem|
 B4 c4 d8- | d8 z8 | d8 c6 A2 | A4 c4 e4 E4 | A8 B8 | A8 B8 | A8 A4 B4 | c8 e8 | c4 e4 c8 | B8 d8 | %46
w: me- * um,|_|et bi- bet|san- gui- nem me-|um, et|bi- bet|san- gui- nem|me- um,|san- * gui-|nem me-|
 c4 B4 A8 | z8 F8 | G8 A8 | B8 e8 | d8 A8 | B16 | A4 B2 c2 d8 | c4 B4 A4 B4 | c8 B8 | c8 z8 | %56
w: * * um,|in|me ma-|net, in|me ma-|net,|in _ _ _|me _ _ _|ma- *|net,|
 A8 e8 | d8 c8 | B8 A8 | G8 F4 G2 A2 | B16- | B4 A4 G2 A2 B4 | c8 A8- | A16 | B8 c4 d4 | c8 B4 A4 | %66
w: et e-|go in|il- lo,|et e- * *|go|_ in il- * *|* lo,|_|et e- go|in _ _|
 B4 A4 e8 | z8 e8 | B4 e4 d6 c2 | B2 A2 G2 F2 E8 | A8 c8 | d8 B8 | c4 d4 e4 c4 | B4 G4 A4 B2 c2 | %74
w: il- * lo.|Al-|le- * lu- *|* * * * ia,|al- le-|lu- ia,|al- * * le-|* lu- * * *|
 d8 A8- | A8 d8 | c16 | f16 | e16 |] %79
w: ia, al-|* le-|lu-|ia.|_|
V:4
 A,8 A,8 | E,8 A,8 | G,6 F,2 E,4 G,4 | F,6 E,2 D,8 | D,4 E,4 F,4 G,4 | A,4 A,,2 B,,2 C,6 D,2 | %6
w: Ca- ro|me- a|ve- re est _|ci- * bus,|ca- ro me- a|ve- re est ci- *|
 E,8 B,4 A,4 | G,4 F,4 E,4 D,2 C,2 | B,,8 D,8 | C,4 B,,4 A,,8 | E,8 A,8 | B,4 A,4 G,8 | A,8 z8 | %13
w: bus, ca- *||ro me-|* * a|ve- re|est ci- *|bus,|
 A,8 G,6 F,2 | E,4 A,4 G,6 F,2 | D,8 A,,8 | A,,8 B,,8 | E,8 F,4 G,4 | A,8 B,8 | C8 D8 | %20
w: et san- guis|me- us ve- re|est po-|tus, et|san- * guis|me- us|ve- re|
 D,8 A,,4 B,,4 | C,8 D,8 | E,8 F,4 G,4 | A,8 A,,2 B,,2 C,2 D,2 | E,8 z8 | A,,8 A,,2 B,,2 C,2 D,2 | %26
w: est po- *|tus, ve-|* * re|est po- * * *|tus.|Qui man- * * *|
 E,4 F,4 G,4 A,4 | F,8 E,8 | B,8 G,8 | D,8 A,8 | G,4 F,4 E,8 | D,8 C,4 E,4 | G,4 F,2 E,2 D,4 C,4 | %33
w: du- cat car- nem|me- um,|qui man-|du- cat|car- nem me-|um, qui man-|du- * * * *|
 B,,8 F,8 | A,8 D,2 E,2 F,2 G,2 | A,8 z8 | G,8 F,6 D,2 | D,4 F,4 A,4 A,,4 | D,8 A,8 | F,6 G,2 A,8 | %40
w: cat car-|nem me- * * *|um,|et bi- bet|san- gui- nem me-|um, et|bi- * *|
 D,4 E,2 F,2 G,8 | D,8 B,,8 | C,4 D,2 E,2 F,4 G,4 | A,4 B,4 C6 B,2 | A,4 G,4 F,8 | z8 B,,8 | %46
w: bet _ _ san-|gui- nem|me- * * * *||* * um,|in|
 C,8 D,8 | E,8 B,,8- | B,,8 C,8 | D,4 E,8 F,4- | F,4 E,2 D,2 C,8 | B,,8 E,4 D,4 | C,8 B,,8 | %53
w: me ma-|net, in|_ me|_ _ ma-||net, in me|ma- net,|
 z8 D,8 | A,8 G,8 | F,8 E,8 | D,8 E,8 | F,4 G,4 A,8 | B,8 C8 | D8 D,8 | G,4 A,4 B,4 B,,4 | %61
w: et|e- go|in il-|lo, et|e- go in|il- *|lo, et|e- go in il-|
 E,8 B,,8 | A,,4 B,,4 C,8 | D,4 E,4 F,8 | G,8 z8 | A,8 E,4 A,4 | G,6 F,2 E,2 D,2 C,2 B,,2 | %67
w: lo, et|e- go in|il- * *|lo.|Al- le- *|lu- * * * * *|
 A,,8 E,8- | E,8 F,8 | G,4 E,4 B,8 | C8 A,8 | G,4 F,4 E,8 | A,,16 | E,4 G,4 D,8 | B,,8 C,8 | %75
w: ia, al-|* le-|lu- ia, al-|le- lu-||ia,|al- le- lu-|ia, al-|
 D,4 E,4 F,4 G,4 | A,16- | A,16 | A,,16 |] %79
w: le- * * *|lu-||ia.|

